images/section-social-icons/github_icon.svg

<svg width="70" height="70" viewBox="0 0 70 70" fill="none" xmlns="http://www.w3.org/2000/svg">
<path fill-rule="evenodd" clip-rule="evenodd" d="M35.0754 5.83337C19.0075 5.83337 5.98454 18.8563 5.98454 34.9242C5.98454 47.775 14.3175 58.6805 25.8791 62.5305C27.3345 62.793 27.8595 61.8975 27.8595 61.1275C27.8595 60.4363 27.8362 58.6046 27.8275 56.1809C19.7337 57.9367 18.0245 52.2784 18.0245 52.2784C16.7062 48.9184 14.7958 48.023 14.7958 48.023C12.1562 46.2175 14.997 46.2584 14.997 46.2584C17.9195 46.4625 19.4508 49.2567 19.4508 49.2567C22.0466 53.7017 26.2641 52.4184 27.915 51.6746C28.1804 49.7934 28.9387 48.51 29.767 47.7838C23.3095 47.0517 16.5195 44.555 16.5195 33.4046C16.5195 30.2342 17.6541 27.6325 19.5062 25.6025C19.2116 24.8646 18.2054 21.9042 19.795 17.9025C19.795 17.9025 22.2362 17.118 27.7925 20.8805C30.1654 20.2349 32.6132 19.9054 35.0725 19.9005C37.5317 19.9044 39.9797 20.234 42.3525 20.8805C47.9116 17.115 50.35 17.9025 50.35 17.9025C51.9395 21.9042 50.942 24.8646 50.6387 25.6025C52.5054 27.6325 53.6254 30.2313 53.6254 33.4046C53.6254 44.5842 46.8295 47.04 40.3487 47.7605C41.3841 48.6588 42.3175 50.4321 42.3175 53.1446C42.3175 57.0355 42.2825 60.1738 42.2825 61.1275C42.2825 61.9063 42.8016 62.8105 44.2862 62.5246C55.842 58.6688 64.1662 47.7721 64.1662 34.9242C64.1662 18.8563 51.1433 5.83337 35.0754 5.83337Z" fill="#CCCCCC"/>
</svg>

<svg width="70" height="70" fill="none" xmlns="http://www.w3.org/2000/svg"><path fill-rule="evenodd" clip-rule="evenodd" d="M35.075 5.833c-16.068 0-29.09 13.023-29.09 29.091 0 12.851 8.332 23.757 19.894 27.607 1.455.262 1.98-.633 1.98-1.404 0-.69-.023-2.522-.032-4.946-8.093 1.756-9.803-3.903-9.803-3.903-1.318-3.36-3.228-4.255-3.228-4.255-2.64-1.806.201-1.765.201-1.765 2.922.204 4.454 2.999 4.454 2.999 2.596 4.445 6.813 3.161 8.464 2.418.265-1.882 1.024-3.165 1.852-3.891-6.457-.732-13.247-3.229-13.247-14.38 0-3.17 1.134-5.772 2.986-7.802-.294-.737-1.3-3.698.289-7.7 0 0 2.441-.784 7.997 2.979a27.942 27.942 0 0 1 7.28-.98c2.46.003 4.908.333 7.28.98 5.56-3.766 7.998-2.979 7.998-2.979 1.59 4.002.592 6.963.289 7.7 1.866 2.03 2.986 4.63 2.986 7.803 0 11.18-6.795 13.635-13.276 14.355 1.035.899 1.969 2.672 1.969 5.385 0 3.89-.035 7.029-.035 7.982 0 .78.519 1.683 2.003 1.398 11.556-3.856 19.88-14.753 19.88-27.6 0-16.069-13.023-29.092-29.09-29.092z" fill="#CCC"/></svg>
